X:13024
T:Persian Dance,The,1st part. JNu.22
T:Gallopede,aka. JNu.22
M:2/4
L:1/8
Q:200
S:James Nuttall MS,c1830?,Rossendale,East Lancs.
R:Misc.
O:England
A:East Lancashire
Z:vmp.Manchester Morris Men
K:G
"primo"d/c/|BB/c/ AA/B/|GG GA/B/|cc/d/ BB/c/|AA Ad/c/|!
BB/c/ AA/B/|GG GA/B/|c/B/A/G/ F/D/E/F/|GG G::!
d/c/|Bg/f/ ee/d/|d/c/B/c/ A2d/c/|B2g/f/ e/d/c/B/|AAAd/c/|!
Bg/f/ ee/d/|d/c/B/c/Ad/c/|B/d/c/B/ A/c/B/A/|GGG::!
B/c/|dd dg|dd dg|dd e/d/c/B/|cA AB/c/|!
dd dg|dd dg|BG/A/ B/A/G/F/|GG G:|]


